!!!COM: Bach, Johann Sebastian
!!!CDT: 1685///-1750///
!!!CNT@EN: German
!!!OTL: Allemande from Cello Suite No. 4 in E-flat Major, BWV 1010
!!!OPR: Cello Suite No. 4 in E-flat Major, BWV 1010
!!!OMD: Allemande
!!!OMV: 2
!!!ODT: 1723///
!!!SCT: BWV 1010
!!!SCA: Thematisch-systematisches Verzeichnis der musikalischen Werke Johann Sebastian Bach: Bach-Werke-Verzeichnis (Schmieder)
**kern
*Icello
*>[A,A,B,B]
*>norep[A,B]
*>A
*clefF4
*k[b-e-a-]
*M2/2
*MM120
8B-\
=1
(8e-\L
16d\L
16c\JJ)
(16B-\LL
16A-\
16G\
16A-\JJ)
(16B-\LL
16A-\)
16G\
16F\JJ
16E-/LL
16D/
16C/
16BB-/JJ
=2
(16C\LL
16E-\
16F\
16G\JJ)
(16A-\LL
16G\
16F\
16E-\JJ)
(16D\LL
16E-\
16F\
16D\JJ
8BB-/L)
8AA-/J
=3
(16GG/LL
16BB-/
16C/
16D/JJ)
(8E-\L
8d-\J)
8AA-\L
8c\
8F\
8E-\J
=4
(16FF/LL
16AA-/
16BB-/
16C/JJ)
(8D\L
8c\J)
8GG\L
8B-\
8E-\
8D\J
=5
(16EE-/LL
16GG/
16AA-/
16BB-/JJ)
(8C\L
8B-\J)
8FF/L
8A-/J
8D\L
(16B-\L
16A-\JJ)
=6
(16G\LL
16F\
16E-\
16G\JJ)
16F\LL
16E-\
16D\
16F\JJ
4EE-/ 4BB-/ 4E-/
(16E-\LL
16F\
16D\
16E-\JJ)
=7
(16F\LL
16E-\
16D\)
16C\JJ
16BB-/LL
16C/
16D/
16E-/JJ
(16F\LL
16G\)
16A-\
16F\JJ
(16G\LL
16F\
16E-\
16F\JJ)
=8
(16G\LL
16F\
16E-\)
16D\JJ
16C\LL
16D\
16E-\
16F\JJ
(16G\LL
16An\)
16B-\
16G\JJ
(16A\LL
16G\
16F\
16G\JJ)
=9
(16An\LL
16G\
16F\
16E-\JJ)
(8D\L
8c\J)
(16GG/LL
16BB-/
16C/
16D/JJ)
(8E-\L
8d\J)
=10
(16c\LL
16B-\
16An\
16G\JJ)
(8F\L
8e-\J)
(16BB-\LL
16D\
16E-\
16F\JJ)
(8G\L
8f\J)
=11
(16e-\LL
16d\
16c\
16B-\JJ)
(8An\L
8g\J)
(16f\LL
16e-\
16d\
16c\JJ)
(8B-\L
8A-\J)
=12
(16G\LL
16F\
16E-\
16D\JJ)
8C/L
8BB-/J
(16AAn\LL
16E-\J
[8G\J
8G\L]
16F\L
16E-\JJ)
=13
(16D/LL
16C/
16BB-/
16D/JJ)
(16C/LL
16BB-/
16AAn/
16C/JJ)
16BB-/LL
(16D/
16C/
(16BB-/JJ)
16C/LL
16E-/
16D/
16C/JJ)
=14
(16D\LL
16E-\
16F\
16G\JJ)
(8A-\L
8BB-\J)
8EE-/L
8A-/J
(16G\LL
16F\
16E-\
16D\JJ)
=15
(16C\LL
16D\
16E-\
16F\JJ)
8G\L
8B-\J
(16An\LL
16B-\
16c\
16B-\JJ)
(16A\LL
16G\
16F\
16E-\JJ)
=16
(16D/LL
16C/
16BB-/)
16D/JJ
16C/LL
16BB-/
16AAn/
16C/JJ
4.BB-/
=:|!|:
*>B
8F\
=17
(8B-\L
16An\L
16G\JJ)
(16F\LL
16E-\
16D\
16E-\JJ)
(16F\LL
16E-\)
16D\
16C\JJ
16BB-/LL
16AA-/
16GG/
16FF/JJ
=18
(16GG\LL
16E-\
16F\
16G\JJ)
16D\LL
(16A-\
16G\
16F\JJ)
(16G\LL
16A-\
16B-\
16G\JJ)
8E-\L
(16D\L
16C\JJ)
=19
(16BBn/LL
16C/
16D/
16E-/JJ)
(8F\L
8A-\J)
(16d\LL
16c\
16Bn\
16An\JJ)
(8G\L
8F\J)
=20
(16C\LL
16D\)
16E-\
16F\JJ
16G\LL
16Bn\
16c\
16d\JJ
(16e-\LL
16d\
16c\
16B-\JJ
16A-\LL
16G\
16F\
16E-\JJ)
=21
(16A-\LL
16G\
16F\
16E-\JJ
16D/LL
16C/
16BBn/
16AAn/JJ
(16F\LL)
16E-\)
16D\
16C\JJ
16BB/LL
16AA/
16GG/
16FF/JJ
=22
8EE-\L
8c\
8GG\
8Bn\J
4CC/ 4GG/ 4E-/ [4c/
8c\L]
(16c\L
16d\JJ)
=23
(16e-\LL
16d\)
16e-\
16d\JJ
(16c\LL
16B-\)
16c\
16B-\JJ
(16An\LL
16B-\)
16A\
16B-\JJ
(16c\LL
16d\
16c\
16d\JJ)
=24
(16e-\LL
16d\
16e-\
16d\JJ
16c\LL
16B-\
16An\
16G\JJ)
(16F#\LL
16G\
16A\
16c\JJ)
8d\L
8C\J
=25
8BB-\L
8d\J
(16E-\LL
16G\
16An\
16B-\JJ)
8c\L
8AAn\J
(16D\LL
16F#\
16G\
16A\JJ)
=26
(16B-\LL
16An\
16G\
16B-\JJ)
(16A\LL
16G\
16F#\
16A\JJ)
8G\L
8D\J
8GG\L
(16B-\L
16c\JJ)
=27
(16d-\LL
16c\)
16d-\
16c\JJ
(16B-\LL
16A-\)
16B-\
16A-\JJ
(16G\LL
16F\)
16G\
16F\JJ
(16En\LL
16G\
16A-\
16B-\JJ)
=28
(16c\LL
16B-\
16A-\
16c\JJ)
(16B-\LL
16A-\
16G\
16B-\JJ)
8A-\L
8F\J
8FF\L
(16F\L
16G\JJ)
=29
(16A-\LL
16G\
16F\
16E-\JJ)
16D\LL
16E-\
16F\
16G\JJ
16A-\LL
16B-\
16c\
16d\JJ
(16e-\LL
16d\
16e-\
16d\JJ)
=30
(16e-\LL
16d\)
16c\
16B-\JJ
16A-\LL
16G\
16F\
16E-\JJ
(16F\LL
16E-\)
16D\
16C\JJ
8BB-\L
8F\J
=31
(16BB-/LL
16C/
16D/
16E-/JJ)
8F\L
8G\J
8C\L
8A-\
8D\
8A-\J
=32
(16E-\LL
16F\
16G\
16A-\JJ)
8B-\L
8c\J
8F\L
8d-\
8G\
8d-\J
=33
(16c\LL
16B-\
16A-\
16G\JJ)
(8A-\L
8c\J)
(16f\LL
16e-\
16dn\
16e-\JJ)
(16f\LL
16e-\
16d\
16c\JJ)
=34
(16B-\LL
16A-\
16G\
16F\JJ)
(8G\L
8B-\J)
(16e-\LL
16d\
16c\
16d\JJ)
(16e-\LL
16d\
16c\
16B-\JJ)
=35
(16A-\LL
16G\
16F\
16G\JJ)
(16A-\LL
16G\
16F\
16E-\JJ)
(16D/LL
16C/
16BB-/
16C/JJ)
(16D/LL
16C/
16BB-/
16AA-/JJ)
=36
(16GG/LL
16BB-/
16C/
16D/JJ)
8E-\L
8d-\J
8AA-\L
8d-\J
(16c\LL
16B-\
16A-\
16G\JJ)
=37
(16A-\LL
16G\
16F\
16E-\JJ)
8D\L
8c\J
8GG\L
8c\J
(16B-\LL
16A-\
16G\
16F\JJ)
=38
(16G\LL
16F\
16E-\
16D\JJ
16C/LL
16BB-/
16AA-/
16GG/JJ
16FF\LL
(16A-\)
16G\
16F\JJ)
16BB-\LL
(16A-\
16G\
16F\JJ)
=39
16EE-\LL
(16G\
16F\
16E-\JJ)
16AAn\LL
(16G-\
16F\
16E-\JJ)
(16D\LL
16F\J
[8c\J
8c\L])
(16B-\L
16A-\JJ)
=40
(16Gn\LL
16F\)
16E-\
16F\JJ
8BB-\L
8d\J
4EE-\ 4BB-\ 4G\ 4e-\
8r
==:|!
*-
!!!ENC: Craig Stuart Sapp
!!!END: 2004/12/29/
